X: 6
I: linebreak $
T: Egle
T: for three
C: Richard Schweitzer, CC BY-NC-SA 3.0
P: AAA B C DD E
N: Permission granted to copy within the SCA.
K: F major
M: 6/8
L: 1/8
P: A (3x)
"^Drone: F"F3 E3 | D2E C3 | F2F G2F | A2G F3 | A2G FE2 | D6 | 
F3 E3 | D2E F3 | G2G G2F | E2F G3 | A2G F2E | F6 "^(3)":| 
P: B
A2G F2E | F6 || 
P: C
G2G G2F | E2F G3 | F2F GFG | A6 | 
G2G G2F | E2F G3 | A2G F2E | F6 |: 
P: D
F3 E3 | D3 F3 | 
G2G G2F | G6 :| 
P: E
F3 E3 | F3 G3 | A2G FE2 | F6 |] 


